X: 13165
T: First Of May, The
R: polka
M: 2/4
K: Dmajor
|:B/|AF F>A|BG G>B|cA Bc|dA/d/ f/e/d/B/|
AF F>A|BG G>B|.c.A B/c/d/e/|1 fd d3/2:|2 fd d2||
|:Af f/4g/4f/e/^d/|eB B>^A|Bg g>f|e/d/c/B/ A/G/F/G/|
Af fe/^d/|eB B>^A|Bg B/^A/B/c/|1 ed d2:|2 ed d3/2||

